svgs/signal.svg

<svg width="192" height="192" viewBox="0 0 192 192" fill="none" xmlns="http://www.w3.org/2000/svg"><path fill-rule="evenodd" clip-rule="evenodd" d="M63 155.478a67.799 67.799 0 0 1-3.556-2.121 6.001 6.001 0 0 0-4.376-.833l-19.36 3.768 3.768-19.36a6 6 0 0 0-.833-4.376 64.77 64.77 0 0 1-.351-.556H24.535a79.45 79.45 0 0 0 2.714 4.941l-3.887 19.971c-1.355 6.961 4.765 13.081 11.726 11.726l19.971-3.887A79.315 79.315 0 0 0 63 168.898v-13.42Z" fill="#000"/><path fill-rule="evenodd" clip-rule="evenodd" d="M152.569 39.431a80.396 80.396 0 0 0-12.112-9.958 6 6 0 0 0-6.678 9.97 68.336 68.336 0 0 1 10.304 8.474 68.342 68.342 0 0 1 8.474 10.304 6 6 0 1 0 9.97-6.677 80.339 80.339 0 0 0-9.958-12.112Zm-43.295-10.13a6 6 0 1 0 2.331-11.772 80.41 80.41 0 0 0-31.21 0 6 6 0 0 0 2.33 11.771 68.405 68.405 0 0 1 26.549 0Zm65.197 51.094a6 6 0 1 0-11.771 2.33 68.432 68.432 0 0 1 0 26.549 6 6 0 1 0 11.771 2.331 80.382 80.382 0 0 0 0-31.21Zm-11.944 60.062a6 6 0 1 0-9.97-6.678 68.317 68.317 0 0 1-8.474 10.304 68.482 68.482 0 0 1-8.779 7.422 6 6 0 0 0 6.947 9.785 80.599 80.599 0 0 0 10.318-8.721 80.378 80.378 0 0 0 9.958-12.112ZM58.221 39.443a6 6 0 0 0-6.677-9.97 80.357 80.357 0 0 0-12.112 9.959 80.49 80.49 0 0 0-8.722 10.317 6 6 0 0 0 9.785 6.947 68.495 68.495 0 0 1 7.422-8.78 68.36 68.36 0 0 1 10.304-8.473ZM30.6 77.325a6 6 0 0 0-11.543-3.283 80.32 80.32 0 0 0-2.914 26.768 6 6 0 0 0 11.978-.718A68.318 68.318 0 0 1 30.6 77.325Zm87.357 95.616a5.999 5.999 0 0 0 4.129-7.412 6 6 0 0 0-7.412-4.13 68.328 68.328 0 0 1-22.767 2.479 6 6 0 1 0-.717 11.978 80.317 80.317 0 0 0 26.767-2.915Zm-84.65-50.551a6 6 0 0 0-11.061 4.652A79.244 79.244 0 0 0 24.535 132h13.757a67.388 67.388 0 0 1-4.983-9.61Zm36.302 36.301a67.337 67.337 0 0 1-9.61-4.983v13.757a79.312 79.312 0 0 0 4.958 2.288 6 6 0 0 0 4.651-11.062Z" fill="#000"/></svg>

<svg id="vector" xmlns="http://www.w3.org/2000/svg" width="192" height="192" viewBox="0 0 192 192"><path fill="#000000" d="M63,155.478C61.798,154.81 60.612,154.103 59.444,153.357C58.146,152.528 56.579,152.23 55.068,152.524L35.708,156.292L39.476,136.932C39.77,135.421 39.472,133.854 38.643,132.556C38.525,132.371 38.408,132.186 38.292,132H24.535C25.378,133.671 26.282,135.32 27.249,136.941L23.362,156.912C22.007,163.873 28.127,169.993 35.088,168.638L55.059,164.751C57.643,166.292 60.294,167.674 63,168.898V155.478Z" fill-rule="evenodd" id="path_0"/><path fill="#000000" d="M152.569,39.431C148.796,35.659 144.736,32.339 140.457,29.473C137.703,27.629 133.976,28.366 132.133,31.119C130.289,33.873 131.026,37.599 133.779,39.443C137.412,41.876 140.867,44.7 144.083,47.917C147.3,51.133 150.124,54.588 152.557,58.221C154.4,60.974 158.127,61.711 160.881,59.867C163.634,58.024 164.371,54.297 162.527,51.543C159.662,47.264 156.341,43.204 152.569,39.431ZM109.274,29.3C112.525,29.944 115.682,27.83 116.325,24.58C116.969,21.329 114.855,18.172 111.605,17.529C101.309,15.49 90.691,15.49 80.395,17.529C77.145,18.172 75.031,21.329 75.675,24.58C76.318,27.83 79.475,29.944 82.726,29.3C91.483,27.567 100.517,27.567 109.274,29.3ZM174.471,80.395C173.828,77.145 170.671,75.031 167.42,75.675C164.17,76.318 162.056,79.475 162.7,82.726C164.433,91.483 164.433,100.517 162.7,109.274C162.056,112.525 164.17,115.682 167.42,116.325C170.671,116.969 173.828,114.855 174.471,111.605C176.51,101.309 176.51,90.691 174.471,80.395ZM162.527,140.457C164.371,137.703 163.634,133.976 160.881,132.133C158.127,130.289 154.4,131.026 152.557,133.779C150.124,137.412 147.3,140.867 144.083,144.083C141.319,146.847 138.38,149.321 135.304,151.505C132.602,153.424 131.967,157.169 133.885,159.871C135.804,162.573 139.549,163.208 142.251,161.29C145.874,158.717 149.327,155.81 152.569,152.569C156.341,148.796 159.662,144.736 162.527,140.457ZM58.221,39.443C60.974,37.599 61.711,33.873 59.867,31.119C58.024,28.366 54.297,27.629 51.543,29.473C47.264,32.339 43.204,35.659 39.431,39.431C36.19,42.673 33.283,46.126 30.71,49.749C28.792,52.451 29.427,56.196 32.129,58.115C34.831,60.033 38.576,59.398 40.495,56.696C42.679,53.619 45.153,50.681 47.917,47.917C51.133,44.7 54.588,41.876 58.221,39.443ZM30.601,77.325C31.507,74.138 29.659,70.819 26.471,69.913C23.284,69.006 19.965,70.855 19.059,74.042C16.577,82.766 15.606,91.826 16.144,100.81C16.342,104.117 19.184,106.638 22.492,106.44C25.8,106.242 28.32,103.4 28.122,100.092C27.664,92.446 28.491,84.74 30.601,77.325ZM117.958,172.941C121.145,172.035 122.994,168.716 122.087,165.529C121.181,162.341 117.862,160.493 114.675,161.399C107.26,163.509 99.554,164.335 91.908,163.878C88.6,163.679 85.758,166.2 85.56,169.508C85.362,172.816 87.883,175.658 91.19,175.856C100.174,176.394 109.234,175.423 117.958,172.941ZM33.309,122.39C32.024,119.336 28.507,117.901 25.452,119.185C22.397,120.47 20.962,123.987 22.247,127.042C22.95,128.715 23.713,130.369 24.535,132H38.292C36.358,128.907 34.697,125.693 33.309,122.39ZM69.61,158.691C66.308,157.303 63.093,155.642 60,153.708V167.465C61.632,168.287 63.285,169.05 64.958,169.753C68.013,171.038 71.53,169.603 72.815,166.548C74.099,163.493 72.664,159.976 69.61,158.691Z" fill-rule="evenodd" id="path_1"/></svg>
